X: 1
T: Hip Agus Hop
M: 3/4
L: 1/8
R: mazurka
K: Emin
EE Ec2 B|BA AG ED|EE EG AB|A3 ^F G^F|
EE Ec2 B|BA AG ED|EE EG AB|A3 G AB|
d3 B de|dB AG AB|d3 B de|d3 G Bd|
e3 d eg|ed BA GB|A3 G ED|1 E3 ^F G^F:|2 E3 A Bd||
e3 d eg|ed BA GB|A3 G A_B|AG EG AB|
e3 d eg|ed BA GB|A3 G AB|A4 Bd|
g^f ed eg|ed BA GB|A3 G A_B|AG EG DE|
GA BG AB|dG AB de|^fg2 e db|1 A3 G Bd:|2 A3 ^F G^F||
